static/instagram.svg

<svg width="24" height="24" viewBox="0 0 24 24" fill="none" xmlns="http://www.w3.org/2000/svg">
<path d="M12.5 1C9.51488 1 9.1395 1.01375 7.96663 1.066C6.79375 1.121 5.99487 1.30525 5.295 1.5775C4.56088 1.85363 3.89593 2.28676 3.34663 2.84663C2.7871 3.39621 2.35402 4.06108 2.0775 4.795C1.80525 5.4935 1.61963 6.29375 1.566 7.4625C1.51375 8.63812 1.5 9.01213 1.5 12.0014C1.5 14.9879 1.51375 15.3619 1.566 16.5347C1.621 17.7063 1.80525 18.5051 2.0775 19.205C2.35938 19.9282 2.73475 20.5415 3.34663 21.1534C3.95713 21.7652 4.57037 22.142 5.29363 22.4225C5.99487 22.6947 6.79238 22.8804 7.96388 22.934C9.13813 22.9862 9.51213 23 12.5 23C15.4879 23 15.8605 22.9862 17.0347 22.934C18.2049 22.879 19.0065 22.6947 19.7064 22.4225C20.44 22.1462 21.1045 21.7131 21.6534 21.1534C22.2652 20.5415 22.6406 19.9282 22.9225 19.205C23.1934 18.5051 23.379 17.7063 23.434 16.5347C23.4862 15.3619 23.5 14.9879 23.5 12C23.5 9.01213 23.4862 8.63813 23.434 7.46388C23.379 6.29375 23.1934 5.4935 22.9225 4.795C22.646 4.06106 22.2129 3.39618 21.6534 2.84663C21.1042 2.28655 20.4392 1.85339 19.705 1.5775C19.0037 1.30525 18.2035 1.11963 17.0334 1.066C15.8591 1.01375 15.4865 1 12.4973 1H12.5014H12.5ZM11.5141 2.98275H12.5014C15.4384 2.98275 15.7863 2.99238 16.9454 3.046C18.0179 3.09413 18.6009 3.27425 18.9886 3.42412C19.5015 3.6235 19.8686 3.86275 20.2536 4.24775C20.6386 4.63275 20.8765 4.9985 21.0759 5.51275C21.2271 5.89913 21.4059 6.48213 21.454 7.55463C21.5076 8.71375 21.5186 9.06163 21.5186 11.9973C21.5186 14.9329 21.5076 15.2821 21.454 16.4412C21.4059 17.5138 21.2257 18.0954 21.0759 18.4831C20.8995 18.9607 20.618 19.3926 20.2522 19.7467C19.8672 20.1318 19.5015 20.3696 18.9873 20.569C18.6023 20.7203 18.0192 20.899 16.9454 20.9485C15.7863 21.0007 15.4384 21.0131 12.5014 21.0131C9.56438 21.0131 9.21513 21.0007 8.056 20.9485C6.9835 20.899 6.40188 20.7203 6.01412 20.569C5.53631 20.3929 5.10405 20.1119 4.74913 19.7467C4.38303 19.392 4.10112 18.9598 3.92412 18.4818C3.77425 18.0954 3.59413 17.5124 3.546 16.4399C3.49375 15.2808 3.48275 14.9329 3.48275 11.9945C3.48275 9.0575 3.49375 8.711 3.546 7.55187C3.5955 6.47937 3.77425 5.89638 3.9255 5.50863C4.12488 4.99575 4.36412 4.62862 4.74913 4.24362C5.13412 3.85862 5.49988 3.62075 6.01412 3.42138C6.40188 3.27013 6.9835 3.09138 8.056 3.04188C9.07075 2.99513 9.464 2.98138 11.5141 2.98V2.98275ZM18.3726 4.80875C18.1993 4.80875 18.0276 4.84289 17.8675 4.90923C17.7073 4.97557 17.5618 5.0728 17.4392 5.19537C17.3167 5.31794 17.2194 5.46346 17.1531 5.62361C17.0868 5.78376 17.0526 5.95541 17.0526 6.12875C17.0526 6.30209 17.0868 6.47374 17.1531 6.63389C17.2194 6.79404 17.3167 6.93956 17.4392 7.06213C17.5618 7.1847 17.7073 7.28193 17.8675 7.34827C18.0276 7.41461 18.1993 7.44875 18.3726 7.44875C18.7227 7.44875 19.0585 7.30968 19.306 7.06213C19.5536 6.81458 19.6926 6.47884 19.6926 6.12875C19.6926 5.77866 19.5536 5.44292 19.306 5.19537C19.0585 4.94782 18.7227 4.80875 18.3726 4.80875ZM12.5014 6.3515C11.7521 6.33981 11.008 6.47729 10.3123 6.75594C9.61671 7.0346 8.98346 7.44885 8.44946 7.97458C7.91546 8.50032 7.49138 9.12703 7.20191 9.81823C6.91244 10.5094 6.76336 11.2513 6.76336 12.0007C6.76336 12.7501 6.91244 13.4919 7.20191 14.1831C7.49138 14.8743 7.91546 15.5011 8.44946 16.0268C8.98346 16.5525 9.61671 16.9668 10.3123 17.2454C11.008 17.5241 11.7521 17.6616 12.5014 17.6499C13.9844 17.6267 15.3988 17.0214 16.4393 15.9645C17.4799 14.9076 18.0631 13.4839 18.0631 12.0007C18.0631 10.5175 17.4799 9.09382 16.4393 8.03691C15.3988 6.97999 13.9844 6.37464 12.5014 6.3515ZM12.5014 8.33288C13.474 8.33288 14.4067 8.71923 15.0944 9.40695C15.7821 10.0947 16.1685 11.0274 16.1685 12C16.1685 12.9726 15.7821 13.9053 15.0944 14.593C14.4067 15.2808 13.474 15.6671 12.5014 15.6671C11.5288 15.6671 10.596 15.2808 9.90833 14.593C9.22061 13.9053 8.83425 12.9726 8.83425 12C8.83425 11.0274 9.22061 10.0947 9.90833 9.40695C10.596 8.71923 11.5288 8.33288 12.5014 8.33288Z" fill="#1D4283"/>
</svg>

<svg width="24" height="24" fill="none" xmlns="http://www.w3.org/2000/svg"><path d="M12.5 1c-2.985 0-3.36.014-4.533.066-1.173.055-1.972.24-2.672.511-.734.277-1.4.71-1.948 1.27a5.4 5.4 0 0 0-1.27 1.948c-.272.699-.457 1.499-.511 2.668C1.514 8.638 1.5 9.013 1.5 12c0 2.987.014 3.36.066 4.534.055 1.171.24 1.97.512 2.67a5.403 5.403 0 0 0 1.269 1.948c.61.612 1.223.989 1.947 1.27.7.272 1.498.457 2.67.511 1.174.052 1.548.066 4.536.066 2.988 0 3.36-.014 4.535-.066 1.17-.055 1.971-.24 2.671-.512a5.386 5.386 0 0 0 1.947-1.269 5.404 5.404 0 0 0 1.27-1.948c.27-.7.456-1.499.511-2.67.052-1.173.066-1.547.066-4.535 0-2.988-.014-3.362-.066-4.536-.055-1.17-.24-1.97-.512-2.669a5.4 5.4 0 0 0-1.269-1.948 5.379 5.379 0 0 0-1.948-1.27c-.701-.272-1.502-.457-2.672-.511C15.86 1.014 15.486 1 12.497 1h.004-.001zm-.986 1.983h.987c2.937 0 3.285.01 4.444.063 1.073.048 1.656.228 2.044.378.512.2.88.439 1.265.824a3.4 3.4 0 0 1 .822 1.265c.151.386.33.97.378 2.042.054 1.159.065 1.507.065 4.442 0 2.936-.011 3.285-.065 4.444-.048 1.073-.228 1.654-.378 2.042-.177.478-.458.91-.824 1.264-.385.385-.75.623-1.265.822-.385.151-.968.33-2.042.38-1.159.052-1.507.064-4.444.064-2.937 0-3.286-.012-4.445-.065-1.072-.049-1.654-.228-2.042-.379a3.407 3.407 0 0 1-1.265-.822 3.41 3.41 0 0 1-.825-1.265c-.15-.387-.33-.97-.378-2.042-.052-1.16-.063-1.507-.063-4.446 0-2.937.01-3.283.063-4.442.05-1.073.228-1.656.38-2.043.199-.513.438-.88.823-1.265.385-.385.75-.623 1.265-.823.388-.15.97-.33 2.042-.38 1.015-.046 1.408-.06 3.458-.061v.003zm6.859 1.826a1.32 1.32 0 1 0 0 2.64 1.32 1.32 0 0 0 0-2.64zM12.5 6.35a5.65 5.65 0 1 0-.176 11.3 5.65 5.65 0 0 0 .176-11.3zm0 1.982a3.667 3.667 0 1 1 0 7.334 3.667 3.667 0 0 1 0-7.334z" fill="#1D4283"/></svg>
